X: 12642
T: Farmer's Joy, The
R: jig
M: 6/8
K: Amajor
efa c2c|dcB c2A|c2A cde|f3 e3|
efa c2c|dcB c2A|cde dcB|1 A6:|2 A3 AGA||
B2E B2B|BcA B2E|B2E Bcd|c2A B3|
B2E B2B|BcA B2e|efa c2B|1 A3 AGA:|2 A6||

